icons/villa.svg

<svg width="18" height="21" viewBox="0 0 18 21" fill="none" xmlns="http://www.w3.org/2000/svg">
<path fill-rule="evenodd" clip-rule="evenodd" d="M1.8001 18.3V2.70002H1.5001C1.00304 2.70002 0.600098 2.29708 0.600098 1.80002C0.600098 1.30297 1.00304 0.900024 1.5001 0.900024H16.5001C16.9972 0.900024 17.4001 1.30297 17.4001 1.80002C17.4001 2.29708 16.9972 2.70002 16.5001 2.70002H16.2001V18.3H16.5001C16.9972 18.3 17.4001 18.703 17.4001 19.2C17.4001 19.6971 16.9972 20.1 16.5001 20.1H12.3001C11.803 20.1 11.4001 19.6971 11.4001 19.2V16.2C11.4001 15.703 10.9972 15.3 10.5001 15.3H7.5001C7.00304 15.3 6.6001 15.703 6.6001 16.2V19.2C6.6001 19.6971 6.19715 20.1 5.7001 20.1H1.5001C1.00304 20.1 0.600098 19.6971 0.600098 19.2C0.600098 18.703 1.00304 18.3 1.5001 18.3H1.8001ZM5.4001 5.10002C5.4001 4.76865 5.66873 4.50002 6.0001 4.50002H7.2001C7.53147 4.50002 7.8001 4.76865 7.8001 5.10002V6.30002C7.8001 6.6314 7.53147 6.90002 7.2001 6.90002H6.0001C5.66873 6.90002 5.4001 6.6314 5.4001 6.30002V5.10002ZM6.0001 9.30002C5.66873 9.30002 5.4001 9.56865 5.4001 9.90003V11.1C5.4001 11.4314 5.66873 11.7 6.0001 11.7H7.2001C7.53147 11.7 7.8001 11.4314 7.8001 11.1V9.90003C7.8001 9.56865 7.53147 9.30002 7.2001 9.30002H6.0001ZM10.2001 5.10002C10.2001 4.76865 10.4687 4.50002 10.8001 4.50002H12.0001C12.3315 4.50002 12.6001 4.76865 12.6001 5.10002V6.30002C12.6001 6.6314 12.3315 6.90002 12.0001 6.90002H10.8001C10.4687 6.90002 10.2001 6.6314 10.2001 6.30002V5.10002ZM10.8001 9.30002C10.4687 9.30002 10.2001 9.56865 10.2001 9.90003V11.1C10.2001 11.4314 10.4687 11.7 10.8001 11.7H12.0001C12.3315 11.7 12.6001 11.4314 12.6001 11.1V9.90003C12.6001 9.56865 12.3315 9.30002 12.0001 9.30002H10.8001Z" fill="white"/>
</svg>

<svg xmlns="http://www.w3.org/2000/svg" fill="none" viewBox="0 0 18 21"><path fill="#fff" fill-rule="evenodd" d="M1.8 18.3V2.7h-.3a.9.9 0 1 1 0-1.8h15a.9.9 0 1 1 0 1.8h-.3v15.6h.3a.9.9 0 0 1 0 1.8h-4.2a.9.9 0 0 1-.9-.9v-3c0-.5-.4-.9-.9-.9h-3c-.5 0-.9.4-.9.9v3c0 .5-.4.9-.9.9H1.5a.9.9 0 1 1 0-1.8h.3ZM5.4 5.1c0-.3.3-.6.6-.6h1.2c.3 0 .6.3.6.6v1.2c0 .3-.3.6-.6.6H6a.6.6 0 0 1-.6-.6V5.1ZM6 9.3c-.3 0-.6.3-.6.6v1.2c0 .3.3.6.6.6h1.2c.3 0 .6-.3.6-.6V9.9c0-.3-.3-.6-.6-.6H6Zm4.2-4.2c0-.3.3-.6.6-.6H12c.3 0 .6.3.6.6v1.2c0 .3-.3.6-.6.6h-1.2a.6.6 0 0 1-.6-.6V5.1Zm.6 4.2c-.3 0-.6.3-.6.6v1.2c0 .3.3.6.6.6H12c.3 0 .6-.3.6-.6V9.9c0-.3-.3-.6-.6-.6h-1.2Z" clip-rule="evenodd"/></svg>
